build/system/RefuseOutline.svg

<svg xmlns="http://www.w3.org/2000/svg" fill="none" viewBox="0 0 24 24" focusable="false"><path d="M0 0H24V24H0z"/><path fill="#74767B" fill-rule="evenodd" d="M12 3C7.02944 3 3 7.02944 3 12C3 16.9706 7.02944 21 12 21C16.9706 21 21 16.9706 21 12C21 7.02944 16.9706 3 12 3ZM7.03573 6.11369C8.37616 4.98207 10.1084 4.3 12 4.3C16.2526 4.3 19.7 7.74741 19.7 12C19.7 13.926 18.9929 15.6868 17.8242 17.037C13.6903 12.7924 11.4981 10.5764 7.03573 6.11369ZM6.11626 7.03269C4.9831 8.37354 4.3 10.107 4.3 12C4.3 16.2526 7.74741 19.7 12 19.7C13.8587 19.7 15.5635 19.0415 16.894 17.945C12.874 13.8175 10.484 11.4009 6.11626 7.03269Z"/></svg>

<svg xmlns="http://www.w3.org/2000/svg" fill="none" viewBox="0 0 24 24" focusable="false"><path fill="#74767B" fill-rule="evenodd" d="M12 3c-4.98 0-9 4.02-9 9 0 4.97 4.02 9 9 9a9 9 0 0 0 9-9c0-4.98-4.03-9-9-9M7.03 6.11A7.68 7.68 0 0 1 12 4.29c4.25 0 7.7 3.45 7.7 7.71 0 1.92-.71 3.68-1.88 5.03-4.13-4.24-6.33-6.46-10.79-10.92m-.92.92A7.68 7.68 0 0 0 4.29 12c0 4.25 3.45 7.7 7.71 7.7 1.85 0 3.56-.66 4.89-1.76-4.02-4.13-6.41-6.54-10.78-10.91"/></svg>
